X:234
T: ES BLIES EIN JAEGER WOHL IN SEIN HORN
N: Z0233
O: Europa, Mitteleuropa, Deutschland
R: Jaeger - Lied
M: 6/8
L: 1/8
K: G
D | G2GGAB | A2AA2B | A2AA2
D | G2BdcB | A2DD2z |
EEEE2z | FFFF2
D | DGGGBB | DEFG2

@@@ Tune index: 9992
